packages/devextreme-scss/images/icons/generic/cursorprohibition.svg

<svg width="18" height="18" viewBox="0 0 18 18" fill="none" xmlns="http://www.w3.org/2000/svg">
<path fill-rule="evenodd" clip-rule="evenodd" d="M1 9C1 4.582 4.582 1 9 1C13.418 1 17 4.582 17 9C17 13.418 13.418 17 9 17C4.582 17 1 13.418 1 9ZM3 9C3 12.314 5.686 15 9 15C10.2959 15 11.4958 14.5893 12.4766 13.8908L4.10915 5.52337C3.41074 6.50417 3 7.70407 3 9ZM13.8908 12.4766C14.5893 11.4958 15 10.2959 15 9C15 5.686 12.314 3 9 3C7.70407 3 6.50417 3.41074 5.52336 4.10915L13.8908 12.4766Z" fill="black"/>
</svg>

<!-- Generated by IcoMoon.io -->
<svg version="1.1" xmlns="http://www.w3.org/2000/svg" width="18" height="18" viewBox="0 0 18 18">
<path d="M1 9c0-4.418 3.582-8 8-8s8 3.582 8 8c0 4.418-3.582 8-8 8s-8-3.582-8-8zM3 9c0 3.314 2.686 6 6 6 1.296 0 2.496-0.411 3.477-1.109l-8.367-8.367c-0.698 0.981-1.109 2.181-1.109 3.477zM13.891 12.477c0.699-0.981 1.109-2.181 1.109-3.477 0-3.314-2.686-6-6-6-1.296 0-2.496 0.411-3.477 1.109l8.367 8.367z"></path>
</svg>
